apps/common/main/resources/img/toolbar/2.5x/big/btn-inserthyperlink.svg

<svg width="28" height="28" viewBox="0 0 28 28" fill="none" xmlns="http://www.w3.org/2000/svg">
<path d="M14.8662 7.63465L17.8361 4.6648C19.0857 3.41512 21.1119 3.41512 22.3615 4.6648L23.3516 5.65485C24.6013 6.90453 24.6013 8.93066 23.3516 10.1803L20.3817 13.1502C19.487 14.0449 18.1944 14.299 17.0736 13.9127L16.308 14.6782C17.8692 15.4241 19.7957 15.1504 21.0888 13.8573L24.0587 10.8874C25.6989 9.24724 25.6989 6.58794 24.0587 4.94774L23.0687 3.95769C21.4285 2.31749 18.7692 2.31749 17.129 3.95769L14.1591 6.92754C12.866 8.22064 12.5924 10.1471 13.3382 11.7083L14.1037 10.9427C13.7174 9.82196 13.9715 8.52932 14.8662 7.63465Z" fill="black"/>
<path d="M4.96656 17.5341L7.9365 14.5641C8.83117 13.6694 10.1238 13.4153 11.2446 13.8017L12.0102 13.0361C10.449 12.2903 8.52249 12.5639 7.22939 13.857L4.25945 16.827C2.61925 18.4672 2.61925 21.1264 4.25945 22.7666L5.24947 23.7567C6.88967 25.3969 9.54897 25.3969 11.1892 23.7567L14.1591 20.7867C15.4522 19.4936 15.7259 17.5671 14.9801 16.0059L14.2145 16.7715C14.6008 17.8923 14.3467 19.1849 13.452 20.0796L10.4821 23.0496C9.23239 24.2992 7.20626 24.2992 5.95658 23.0496L4.96655 22.0595C3.71688 20.8099 3.71688 18.7837 4.96656 17.5341Z" fill="black"/>
<path d="M9.0599 19.6477L19.9494 8.75827L19.2422 8.05116L8.3528 18.9406L9.0599 19.6477Z" fill="black"/>
</svg>

<svg width="28" height="28" fill="none" xmlns="http://www.w3.org/2000/svg"><path d="m14.866 7.635 2.97-2.97a3.2 3.2 0 0 1 4.526 0l.99.99a3.2 3.2 0 0 1 0 4.525l-2.97 2.97a3.2 3.2 0 0 1-3.308.763l-.766.765a4.202 4.202 0 0 0 4.78-.82l2.97-2.97a4.2 4.2 0 0 0 0-5.94l-.99-.99a4.2 4.2 0 0 0-5.939 0l-2.97 2.97a4.202 4.202 0 0 0-.82 4.78l.765-.765a3.2 3.2 0 0 1 .762-3.308zM4.967 17.534l2.97-2.97a3.2 3.2 0 0 1 3.308-.762l.765-.766a4.202 4.202 0 0 0-4.78.821l-2.97 2.97a4.2 4.2 0 0 0 0 5.94l.99.99a4.2 4.2 0 0 0 5.94 0l2.97-2.97a4.202 4.202 0 0 0 .82-4.781l-.766.765a3.2 3.2 0 0 1-.762 3.309l-2.97 2.97a3.2 3.2 0 0 1-4.525 0l-.99-.99a3.2 3.2 0 0 1 0-4.526z" fill="#000"/><path d="m9.06 19.648 10.89-10.89-.708-.707-10.89 10.89.708.707z" fill="#000"/></svg>
